lib/assets/next.svg

<svg width="48" height="48" viewBox="0 0 48 48" fill="none" xmlns="http://www.w3.org/2000/svg">
<path d="M19.3566 37.4696L17.887 38.8262L15.1738 35.887L16.6434 34.5304L19.3566 37.4696ZM31 24L32.3566 22.5304C32.7667 22.909 33 23.4418 33 24C33 24.5582 32.7667 25.091 32.3566 25.4696L31 24ZM16.6434 13.4696L15.1738 12.113L17.887 9.17383L19.3566 10.5304L16.6434 13.4696ZM16.6434 34.5304L29.6434 22.5304L32.3566 25.4696L19.3566 37.4696L16.6434 34.5304ZM29.6434 25.4696L16.6434 13.4696L19.3566 10.5304L32.3566 22.5304L29.6434 25.4696Z" fill="#EBEBEB"/>
</svg>

<svg width="48" height="48" viewBox="0 0 48 48" fill="none" xmlns="http://www.w3.org/2000/svg"><path d="m19.357 37.47-1.47 1.356-2.713-2.939 1.47-1.357 2.713 2.94ZM31 24l1.357-1.47a2 2 0 0 1 0 2.94L31 24ZM16.643 13.47l-1.47-1.357 2.714-2.94 1.47 1.357-2.714 2.94Zm0 21.06 13-12 2.714 2.94-13 12-2.714-2.94Zm13-9.06-13-12 2.714-2.94 13 12-2.714 2.94Z" fill="#EBEBEB"/></svg>
